Origami/32x32/apps/distributor-logo-lubuntu.svg

<svg width="32" height="32" version="1" xmlns="http://www.w3.org/2000/svg">
 <circle cx="16" cy="17" r="14" style="opacity:.2"/>
 <circle cx="16" cy="16" r="14" style="fill:#0068c8"/>
 <path d="m19.369 5.9707c-0.41-0.02-2.699 0.6598-3.379 1.5098-1.898 0.1315-9.1336 5.0075-13.9841 8.4065a14 14 0 0 0 -0.0059 0.113 14 14 0 0 0 0.0703 1.281c1.9202-0.712 3.8976-1.36 4.7793-1.351 0.2 0 0.3502 0.029 0.4102 0.109 0.4 0.46-1.2798 2.712-3.0098 5.262-0.2429 0.354-0.4774 0.709-0.7168 1.066a14 14 0 0 0 0.4844 0.848c2.2476-2.803 4.7782-5.895 5.5332-6.004 0.05-0.01 0.0891 0 0.1191 0.01 0.1383 0.166-2.2032 3.934-4.4844 7.656a14 14 0 0 0 0.9024 1c1.026-1.413 2.0897-2.889 3.1426-4.338 2.5995-3.59 4.8995-6.958 6.0295-6.988 0.03 0 0.059 0.01 0.099 0.01 3.267 0.018 6.447 7.718 8.291 13.16a14 14 0 0 0 0.901 -0.645c-0.928-6.123-2.918-15.154-6.862-17.7869 0.45-0.3 0.491-1.8282 0.491-1.8282l1.189-1.4902z" style="fill:#ffffff"/>
 <path d="M 16 2 A 14 14 0 0 0 2 16 A 14 14 0 0 0 2.0215 16.586 A 14 14 0 0 1 16 3 A 14 14 0 0 1 29.979 16.414 A 14 14 0 0 0 30 16 A 14 14 0 0 0 16 2 z" style="fill:#ffffff;opacity:.1"/>
</svg>

<svg xmlns="http://www.w3.org/2000/svg" width="32" height="32" version="1">
 <circle style="opacity:0.2" cx="16" cy="17" r="14"/>
 <circle style="fill:#0068c8" cx="16" cy="16" r="14"/>
 <path style="fill:#ffffff" d="M 19.369 5.9707 C 18.959 5.9507 16.67 6.6305 15.99 7.4805 C 14.092 7.612 6.8564 12.488 2.0059 15.887 A 14 14 0 0 0 2 16 A 14 14 0 0 0 2.0703 17.281 C 3.9905 16.569 5.9679 15.921 6.8496 15.93 C 7.0496 15.93 7.1998 15.959 7.2598 16.039 C 7.6598 16.499 5.98 18.751 4.25 21.301 C 4.0071 21.655 3.7726 22.01 3.5332 22.367 A 14 14 0 0 0 4.0176 23.215 C 6.2652 20.412 8.7958 17.32 9.5508 17.211 C 9.6008 17.201 9.6399 17.211 9.6699 17.221 C 9.8082 17.387 7.4667 21.155 5.1855 24.877 A 14 14 0 0 0 6.0879 25.877 C 7.1139 24.464 8.1776 22.988 9.2305 21.539 C 11.83 17.949 14.13 14.581 15.26 14.551 C 15.29 14.551 15.319 14.561 15.359 14.561 C 18.626 14.579 21.806 22.279 23.65 27.721 A 14 14 0 0 0 24.551 27.076 C 23.623 20.953 21.633 11.922 17.689 9.2891 C 18.139 8.9891 18.18 7.4609 18.18 7.4609 L 19.369 5.9707 z"/>
 <path style="opacity:0.1;fill:#ffffff" d="M 16 2 A 14 14 0 0 0 2 16 A 14 14 0 0 0 2.0215 16.586 A 14 14 0 0 1 16 3 A 14 14 0 0 1 29.979 16.414 A 14 14 0 0 0 30 16 A 14 14 0 0 0 16 2 z"/>
</svg>
